dist/svgs/carbon-icons/svg/light.svg

<svg xmlns="http://www.w3.org/2000/svg" fill-rule="evenodd" viewBox="0 0 18 18"><path d="M9 0c.3 0 .6.3.6.6v2.5c0 .3-.3.6-.6.6s-.6-.3-.6-.6V.6c0-.3.3-.6.6-.6zm0 14.4c.3 0 .6.3.6.6v2.5c0 .3-.3.6-.6.6s-.6-.3-.6-.6V15c0-.4.3-.6.6-.6z"/><circle cx="9" cy="9" r="4"/><path d="M14.4 9c0-.3.3-.6.6-.6h2.5c.2.1.5.3.5.6s-.3.6-.6.6h-2.5c-.3 0-.5-.3-.5-.6zM0 9c0-.3.3-.6.6-.6h2.5c.3 0 .6.3.6.6s-.3.6-.6.6H.6C.3 9.6 0 9.3 0 9zm2.1-6.6c.2-.2.6-.2.8 0l1.8 1.8c.2.2.2.6 0 .8-.2.2-.6.2-.8 0L2.1 3.2c-.2-.2-.2-.6 0-.8zm11 2.6c-.2-.2-.2-.6 0-.8l1.8-1.8c.2-.2.6-.2.8 0 .2.2.2.6 0 .8L13.9 5c-.2.2-.6.2-.8 0zm2.6 10.7c-.2.2-.6.2-.8 0l-1.8-1.8c-.2-.2-.2-.6 0-.8.2-.2.6-.2.8 0l1.8 1.8c.2.2.2.6 0 .8zm-11-2.6c.2.2.2.6 0 .8l-1.8 1.8c-.2.2-.6.2-.8 0-.2-.2-.2-.6 0-.8l1.8-1.8c.2-.2.6-.2.8 0z"/></svg>

<svg width="18px" height="18px" viewBox="0 0 18 18" version="1.1" xmlns="http://www.w3.org/2000/svg" xmlns:xlink="http://www.w3.org/1999/xlink" fill-rule="evenodd">
  <path d="M9,0 L9,0 C9.3,0 9.6,0.3 9.6,0.6 L9.6,3.1 C9.6,3.4 9.3,3.7 9,3.7 L9,3.7 C8.7,3.7 8.4,3.4 8.4,3.1 L8.4,0.6 C8.4,0.3 8.7,0 9,0 L9,0 Z" id="Rectangle-path"></path>
  <path d="M9,14.4 L9,14.4 C9.3,14.4 9.6,14.7 9.6,15 L9.6,17.5 C9.6,17.8 9.3,18.1 9,18.1 L9,18.1 C8.7,18.1 8.4,17.8 8.4,17.5 L8.4,15 C8.4,14.6 8.7,14.4 9,14.4 L9,14.4 Z" id="Rectangle-path_1_"></path>
  <circle id="Oval" cx="9" cy="9" r="4"></circle>
  <path d="M14.4,9 L14.4,9 C14.4,8.7 14.7,8.4 15,8.4 L17.5,8.4 C17.7,8.5 18,8.7 18,9 L18,9 C18,9.3 17.7,9.6 17.4,9.6 L14.9,9.6 C14.6,9.6 14.4,9.3 14.4,9 L14.4,9 Z" id="Rectangle-path_2_"></path>
  <path d="M0,9 L0,9 C0,8.7 0.3,8.4 0.6,8.4 L3.1,8.4 C3.4,8.4 3.7,8.7 3.7,9 L3.7,9 C3.7,9.3 3.4,9.6 3.1,9.6 L0.6,9.6 C0.3,9.6 0,9.3 0,9 L0,9 Z" id="Rectangle-path_3_"></path>
  <path d="M2.1,2.4 L2.1,2.4 C2.3,2.2 2.7,2.2 2.9,2.4 L4.7,4.2 C4.9,4.4 4.9,4.8 4.7,5 L4.7,5 C4.5,5.2 4.1,5.2 3.9,5 L2.1,3.2 C1.9,3 1.9,2.6 2.1,2.4 L2.1,2.4 Z" id="Rectangle-path_4_"></path>
  <path d="M13.1,5 L13.1,5 C12.9,4.8 12.9,4.4 13.1,4.2 L14.9,2.4 C15.1,2.2 15.5,2.2 15.7,2.4 L15.7,2.4 C15.9,2.6 15.9,3 15.7,3.2 L13.9,5 C13.7,5.2 13.3,5.2 13.1,5 L13.1,5 Z" id="Rectangle-path_5_"></path>
  <path d="M15.7,15.7 L15.7,15.7 C15.5,15.9 15.1,15.9 14.9,15.7 L13.1,13.9 C12.9,13.7 12.9,13.3 13.1,13.1 L13.1,13.1 C13.3,12.9 13.7,12.9 13.9,13.1 L15.7,14.9 C15.9,15.1 15.9,15.5 15.7,15.7 L15.7,15.7 Z" id="Rectangle-path_6_"></path>
  <path d="M4.7,13.1 L4.7,13.1 C4.9,13.3 4.9,13.7 4.7,13.9 L2.9,15.7 C2.7,15.9 2.3,15.9 2.1,15.7 L2.1,15.7 C1.9,15.5 1.9,15.1 2.1,14.9 L3.9,13.1 C4.1,12.9 4.5,12.9 4.7,13.1 L4.7,13.1 Z" id="Rectangle-path_7_"></path>
</svg>
